X:32
T:The Magazine
C:Suth.p17no32
S:Sutherland, 'Music for the Bagpipe'
Z:Transcribed by Ross Anderson, www.ross-anderson.com - as written
M:6/8
L:1/8
R:Jig
K:G
G2B d2g|D2F A2c|G2B d2g|(4fed^c d:|
D2F A2c|G2B d2g|e3 c>A|d3 B>G|c3A>F G3:|

